X:0565
M:C|
L:1/8
Q:1/2=60 "Amoroso"
K:A
                                                      [2 A6||
  B2| B2GB   BAGF | GA  B2  z2c2 | {c}B2GB    BA```GF|  HE4
zEFG| A4     BcdB | AG``FE  AGA=G|{^E}F2dB {B}A2{A}G2|   A6:|

